images/form-image.svg

<svg width="128" height="82" viewBox="0 0 128 82" fill="none" xmlns="http://www.w3.org/2000/svg">
<path fill-rule="evenodd" clip-rule="evenodd" d="M63.8 81.8872C98.94 81.8872 127.6 79.9102 127.6 77.4872C127.6 75.0632 98.94 73.0872 63.8 73.0872C28.66 73.0872 0 75.0632 0 77.4872C0 79.9102 28.66 81.8872 63.8 81.8872Z" fill="#E0E3E6"/>
<path fill-rule="evenodd" clip-rule="evenodd" d="M25.153 70.8631H101.12V24.2871H25.153V70.8631Z" fill="#F0F1F1"/>
<path fill-rule="evenodd" clip-rule="evenodd" d="M93.551 69.9272H28.246C27.566 69.9272 26.809 69.8472 26.09 69.8612V25.2222H98.026C98.706 25.2222 99.464 25.3022 100.183 25.2882V69.9272H93.55H93.551ZM101.12 23.3512H34.504C31.443 23.3512 28.348 23.2202 25.289 23.3512C25.244 23.3532 25.199 23.3512 25.153 23.3512C24.647 23.3512 24.217 23.7802 24.217 24.2872V70.8632C24.217 71.3682 24.647 71.7982 25.153 71.7982H91.769C94.83 71.7982 97.924 71.9292 100.984 71.7982C101.029 71.7962 101.074 71.7982 101.12 71.7982C101.394 71.7982 101.603 71.6982 101.752 71.5482L101.784 71.5182L101.801 71.5002C101.954 71.3502 102.055 71.1402 102.055 70.8632V24.2872C102.055 23.7812 101.627 23.3512 101.12 23.3512Z" fill="#292C6A"/>
<mask id="mask0" mask-type="alpha" maskUnits="userSpaceOnUse" x="18" y="0" width="90" height="78">
<path d="M18.486 77.8311H107.853V0.297119H18.486V77.8311Z" fill="white"/>
</mask>
<g mask="url(#mask0)">
<path fill-rule="evenodd" clip-rule="evenodd" d="M19.331 75.9291H106.827V70.8621H19.331V75.9291Z" fill="#F0F1F1"/>
<path fill-rule="evenodd" clip-rule="evenodd" d="M98.221 75.8972H22.999C22.159 75.8972 21.233 75.8022 20.357 75.8312V71.7972H103.339C104.179 71.7972 105.105 71.8932 105.982 71.8632V75.8962H98.221V75.8972ZM106.917 69.9272H30.206C26.672 69.9272 23.106 69.7862 19.573 69.9272C19.523 69.9292 19.472 69.9272 19.421 69.9272C18.916 69.9272 18.486 70.3552 18.486 70.8622V76.8332C18.486 77.3382 18.915 77.7682 19.421 77.7682H96.132C99.667 77.7682 103.233 77.9092 106.766 77.7682C106.816 77.7662 106.866 77.7682 106.917 77.7682C107.423 77.7682 107.853 77.3402 107.853 76.8332V70.8622C107.853 70.3572 107.424 69.9272 106.917 69.9272Z" fill="#292C6A"/>
<path fill-rule="evenodd" clip-rule="evenodd" d="M76.661 70.8622H94.104V40.0042H76.661V70.8622Z" fill="#39C0C4"/>
<path fill-rule="evenodd" clip-rule="evenodd" d="M78.848 69.9271H77.597V40.9391H93.169V69.9271H78.849H78.848ZM94.104 39.0681H76.661C76.156 39.0681 75.726 39.4971 75.726 40.0041V70.8631C75.726 71.3681 76.154 71.7981 76.661 71.7981H94.104C94.379 71.7981 94.587 71.6981 94.737 71.5481L94.768 71.5181L94.786 71.4991C94.938 71.3491 95.04 71.1391 95.04 70.8631V40.0031C95.04 39.4981 94.61 39.0681 94.104 39.0681Z" fill="#292C6A"/>
<path fill-rule="evenodd" clip-rule="evenodd" d="M33.361 54.5051H67.994V40.0042H33.361V54.5051Z" fill="#D4DAE0"/>
<path fill-rule="evenodd" clip-rule="evenodd" d="M56.285 53.5691H34.296V40.9391H67.058V53.5691H56.285ZM68.9291 40.0041C68.9291 39.4981 68.5 39.0681 67.994 39.0681H33.361C32.855 39.0681 32.425 39.4971 32.425 40.0041V54.5051C32.425 55.0111 32.854 55.4411 33.36 55.4411H67.993C68.2681 55.4411 68.4771 55.3411 68.626 55.1911L68.6581 55.1611L68.675 55.1421C68.828 54.9921 68.9291 54.7821 68.9291 54.5051V40.0041Z" fill="#292C6A"/>
<path fill-rule="evenodd" clip-rule="evenodd" d="M31.568 24.5272L35.403 1.23218H45.413L44.106 24.5272C44.106 24.5272 43.731 30.7962 37.836 30.7962C31.943 30.7962 31.569 24.5272 31.569 24.5272H31.568ZM56.641 24.5272V1.23218H69.177V24.5272C69.177 24.5272 68.989 30.7962 62.908 30.7962C56.828 30.7962 56.641 24.5272 56.641 24.5272ZM81.714 24.5272L81.339 1.23218H91.723L94.25 24.5272C94.25 24.5272 93.968 29.8602 88.73 30.7022C83.49 31.5442 81.84 26.7822 81.714 24.5272Z" fill="#F0F1F1"/>
<path fill-rule="evenodd" clip-rule="evenodd" d="M106.786 24.5272L101.922 1.23218H91.723L94.25 24.5272C94.25 24.5272 94.25 30.7962 100.518 30.7962C106.786 30.7962 106.786 24.5272 106.786 24.5272ZM45.414 1.23218H56.641V24.5282C56.641 24.5282 55.988 30.7022 50.373 30.7962C44.759 30.8892 44.105 24.5282 44.105 24.5282L45.414 1.23218ZM69.176 1.23218L69.177 24.5282C69.177 24.5282 69.459 30.8892 75.446 30.7962C81.432 30.7022 81.714 24.5282 81.714 24.5282L81.339 1.23218H69.176ZM35.403 1.23218L33.753 11.2562C33.057 15.4882 32.328 19.7162 31.663 23.9542C31.407 25.5812 31.101 27.0602 30.077 28.4242C28.932 29.9502 27.189 30.7342 25.3 30.7962C19.499 30.9832 19.483 24.3402 19.483 24.3402L25.673 1.23218H35.403Z" fill="#39C0C4"/>
<path fill-rule="evenodd" clip-rule="evenodd" d="M105.326 26.9111C104.616 28.5731 103.181 29.6071 101.386 29.8161C99.382 30.0501 97.251 29.4961 96.132 27.7091C95.539 26.7611 95.262 25.5741 95.192 24.6941L95.177 24.5191C95.19 23.4641 95.041 22.3691 94.883 21.2891C94.463 17.0561 93.916 12.8271 93.458 8.60312L92.76 2.16812H101.162L105.282 21.8921L105.849 24.6051C105.835 25.3351 105.675 26.0931 105.326 26.9111ZM93.261 24.9301C92.983 26.2951 92.426 27.5901 91.362 28.5311C89.676 30.0211 86.719 30.4191 84.867 29.0191C83.52 28.0011 82.76 26.1811 82.649 24.5271L82.638 23.7871V23.7851L82.533 17.2831L82.527 16.9141C82.447 12.0011 82.441 7.08012 82.295 2.16812H90.889L92.458 16.6301L92.809 19.8671C92.982 21.4611 93.138 23.0581 93.309 24.6521C93.312 24.8431 93.327 24.6041 93.261 24.9301ZM80.699 25.1221C80.654 25.3381 80.608 25.5521 80.55 25.7651C80.399 26.3221 80.193 26.8551 79.906 27.3571C79.19 28.6111 78.051 29.4431 76.633 29.7391C73.545 30.3841 71.08 28.6831 70.323 25.7291C70.167 25.1241 70.122 24.9211 70.113 24.5031V24.3951C70.177 23.2851 70.113 22.1591 70.113 21.0611V9.46712V2.16712H80.418L80.604 13.7191L80.734 21.7851V21.7861L80.777 24.4651C80.771 24.5821 80.763 24.6981 80.752 24.8151V24.8171L80.745 24.8531C80.731 24.9431 80.717 25.0331 80.699 25.1211V25.1221ZM68.235 24.6531C68.232 24.7131 68.224 24.7731 68.218 24.8331L68.208 24.9551C68.208 24.9451 68.208 24.9261 68.197 24.9991C68.099 25.5951 67.95 26.1951 67.719 26.7541C67.062 28.3411 65.785 29.4541 64.079 29.7661C61.839 30.1741 59.546 29.4221 58.409 27.3861C58.059 26.7631 57.837 26.0821 57.693 25.3841C57.601 24.9401 57.593 24.9851 57.577 24.5261V16.8271C57.577 11.9431 57.66 7.05112 57.585 2.16712H68.241V18.3791L68.242 22.6071C68.242 23.1541 68.232 23.6901 68.249 24.2251C68.246 24.3241 68.246 24.4231 68.242 24.5221L68.235 24.6541V24.6531ZM51.3 29.7771C48.264 30.3301 46.066 28.3511 45.276 25.5711C45.182 25.2381 45.105 24.8991 45.048 24.5581C45.192 23.2961 45.183 21.9981 45.253 20.7501C45.348 19.0481 45.443 17.3471 45.54 15.6451L46.297 2.16912H55.706V24.5261L55.693 24.5831C55.186 26.9771 53.925 29.2991 51.3 29.7761V29.7771ZM43.167 24.5621C43.161 24.6451 43.16 24.6791 43.16 24.6931C43.158 24.6951 43.154 24.7121 43.142 24.7821C43.045 25.3571 42.906 25.9261 42.698 26.4721C42.093 28.0651 40.905 29.3121 39.216 29.7131C37.018 30.2351 34.679 29.4971 33.492 27.5301C33.092 26.8651 32.825 26.1431 32.651 25.3901C32.599 25.1681 32.559 24.9451 32.524 24.7201C32.521 24.6901 32.511 24.6151 32.507 24.5581L35.039 9.17412C35.424 6.83912 35.809 4.50412 36.192 2.16812H44.426L43.74 14.3631L43.567 17.4531L43.535 18.0151L43.471 19.1491L43.289 22.4061C43.259 22.9161 43.217 23.4081 43.205 23.8971L43.171 24.4971L43.167 24.5621ZM30.451 25.3321C30.048 26.9941 29.186 28.4941 27.616 29.2901C26.39 29.9101 24.831 30.0641 23.518 29.6331C21.818 29.0771 20.962 27.4301 20.6 25.7861C20.476 25.2281 20.522 24.9831 20.422 24.4481L20.466 24.2861C20.77 23.2351 21.033 22.1701 21.316 21.1131L24.387 9.65012L26.392 2.16712H34.306L33.068 9.68712C32.876 10.8521 32.685 12.0171 32.49 13.1831C32.138 15.2981 31.782 17.4131 31.434 19.5301C31.362 19.9621 31.297 20.3981 31.234 20.8341C31.204 21.0111 31.174 21.1891 31.146 21.3661L30.691 24.1261C30.647 24.2361 30.626 24.3641 30.633 24.5111C30.577 24.7851 30.517 25.0591 30.451 25.3311V25.3321ZM107.686 24.2641L103.426 3.86712L102.822 0.984119C102.739 0.585119 102.312 0.297119 101.92 0.297119H25.674C25.265 0.297119 24.878 0.587119 24.771 0.984119L19.476 20.7471C19.193 21.8051 18.869 22.8601 18.626 23.9271C18.437 24.7471 18.646 25.6681 18.839 26.4711C19.307 28.4031 20.417 30.2711 22.272 31.1391C25.01 32.4221 28.619 31.6121 30.563 29.3091C30.957 28.8421 31.27 28.3431 31.525 27.8211C32.387 29.5411 33.836 30.9361 35.752 31.4631C38.046 32.0951 40.689 31.6631 42.491 30.0681C43.193 29.4471 43.741 28.6621 44.151 27.8091C45.055 29.5971 46.533 31.0641 48.565 31.5391C51.873 32.3121 55.015 30.7511 56.545 27.8451C57.357 29.4851 58.725 30.8211 60.523 31.3901C62.797 32.1081 65.561 31.7661 67.435 30.2441C68.181 29.6381 68.762 28.8581 69.193 28.0001C70.101 29.7701 71.631 31.1601 73.693 31.5701C77.009 32.2271 80.185 30.8511 81.707 27.9241C82.963 30.3761 85.381 32.0341 88.458 31.6761C90.805 31.4031 92.965 30.0011 94.174 28.0081C94.406 28.4821 94.684 28.9341 95.02 29.3501C96.495 31.1751 98.863 31.8741 101.148 31.7071C104.97 31.4281 107.705 28.3371 107.723 24.5271C107.723 24.4301 107.708 24.3441 107.687 24.2631" fill="#292C6A"/>
</g>
</svg>

<svg width="128" height="82" fill="none" xmlns="http://www.w3.org/2000/svg"><path fill-rule="evenodd" clip-rule="evenodd" d="M63.8 81.887c35.14 0 63.8-1.977 63.8-4.4 0-2.424-28.66-4.4-63.8-4.4S0 75.063 0 77.487c0 2.423 28.66 4.4 63.8 4.4z" fill="#E0E3E6"/><path fill-rule="evenodd" clip-rule="evenodd" d="M25.153 70.863h75.967V24.287H25.153v46.576z" fill="#F0F1F1"/><path fill-rule="evenodd" clip-rule="evenodd" d="M93.551 69.927H28.246c-.68 0-1.437-.08-2.156-.066V25.222h71.936c.68 0 1.438.08 2.157.066v44.64H93.55h.001zm7.569-46.576H34.504c-3.061 0-6.156-.13-9.215 0-.045.002-.09 0-.136 0a.95.95 0 00-.936.936v46.576c0 .505.43.935.936.935h66.616c3.061 0 6.155.131 9.215 0 .045-.002.09 0 .136 0 .274 0 .483-.1.632-.25l.032-.03.017-.018a.86.86 0 00.254-.637V24.287a.949.949 0 00-.935-.936z" fill="#292C6A"/><mask id="a" maskUnits="userSpaceOnUse" x="18" y="0" width="90" height="78"><path d="M18.486 77.831h89.367V.297H18.486v77.534z" fill="#fff"/></mask><g mask="url(#a)" fill-rule="evenodd" clip-rule="evenodd"><path d="M19.331 75.93h87.496v-5.068H19.331v5.067z" fill="#F0F1F1"/><path d="M98.221 75.897H22.999c-.84 0-1.766-.095-2.642-.066v-4.034h82.982c.84 0 1.766.096 2.643.066v4.033h-7.761v.001zm8.696-5.97H30.206c-3.534 0-7.1-.14-10.633 0-.05.002-.101 0-.152 0a.949.949 0 00-.935.935v5.971a.95.95 0 00.935.935h76.711c3.535 0 7.101.141 10.634 0 .05-.002.1 0 .151 0a.949.949 0 00.936-.935v-5.97a.95.95 0 00-.936-.936z" fill="#292C6A"/><path d="M76.661 70.862h17.443V40.004H76.661v30.858z" fill="#39C0C4"/><path d="M78.848 69.927h-1.251V40.94h15.572v28.988H78.848zm15.256-30.859H76.661a.95.95 0 00-.935.936v30.86c0 .504.428.934.935.934h17.443c.275 0 .483-.1.633-.25l.031-.03.018-.019a.864.864 0 00.254-.636v-30.86a.95.95 0 00-.936-.935z" fill="#292C6A"/><path d="M33.361 54.505h34.633v-14.5H33.361v14.5z" fill="#D4DAE0"/><path d="M56.285 53.57H34.296V40.94h32.762v12.63H56.285zm12.644-13.566a.95.95 0 00-.935-.936H33.361a.95.95 0 00-.936.936v14.501a.95.95 0 00.935.936h34.633c.275 0 .484-.1.633-.25l.032-.03.017-.019a.86.86 0 00.254-.637v-14.5z" fill="#292C6A"/><path d="M31.568 24.527l3.835-23.295h10.01l-1.307 23.295s-.375 6.27-6.27 6.27c-5.893 0-6.267-6.27-6.267-6.27h-.001zm25.073 0V1.232h12.536v23.295s-.188 6.27-6.269 6.27c-6.08 0-6.267-6.27-6.267-6.27zm25.073 0l-.375-23.295h10.384l2.527 23.295s-.282 5.333-5.52 6.175c-5.24.842-6.89-3.92-7.016-6.175z" fill="#F0F1F1"/><path d="M106.786 24.527l-4.864-23.295H91.723l2.527 23.295s0 6.27 6.268 6.27 6.268-6.27 6.268-6.27zM45.414 1.232h11.227v23.296s-.653 6.174-6.268 6.268c-5.614.093-6.268-6.268-6.268-6.268l1.309-23.296zm23.762 0l.001 23.296s.282 6.361 6.269 6.268c5.986-.094 6.268-6.268 6.268-6.268l-.375-23.296H69.176zm-33.773 0l-1.65 10.024c-.696 4.232-1.425 8.46-2.09 12.698-.256 1.627-.562 3.106-1.586 4.47-1.145 1.526-2.888 2.31-4.777 2.372-5.801.187-5.817-6.456-5.817-6.456l6.19-23.108h9.73z" fill="#39C0C4"/><path d="M105.326 26.911c-.71 1.662-2.145 2.696-3.94 2.905-2.004.234-4.135-.32-5.254-2.107-.593-.948-.87-2.135-.94-3.015l-.015-.175c.013-1.055-.136-2.15-.294-3.23-.42-4.233-.967-8.462-1.425-12.686l-.698-6.435h8.402l4.12 19.724.567 2.713c-.014.73-.174 1.488-.523 2.306zm-12.065-1.98c-.278 1.364-.835 2.66-1.899 3.6-1.686 1.49-4.643 1.888-6.495.488-1.347-1.018-2.107-2.838-2.218-4.492l-.011-.74v-.002l-.105-6.502-.006-.369c-.08-4.913-.086-9.834-.232-14.746h8.594l1.569 14.462.351 3.237c.173 1.594.329 3.191.5 4.785.003.191.018-.048-.048.278zm-12.562.191c-.045.216-.091.43-.149.643a6.729 6.729 0 01-.644 1.592 4.822 4.822 0 01-3.273 2.382c-3.088.645-5.553-1.056-6.31-4.01-.156-.605-.201-.808-.21-1.226v-.108c.064-1.11 0-2.236 0-3.334V2.167h10.305l.186 11.552.13 8.066v.001l.043 2.68a8.23 8.23 0 01-.025.35v.001l-.007.036c-.014.09-.028.18-.046.268v.001zm-12.464-.469c-.003.06-.011.12-.017.18l-.01.122c0-.01 0-.029-.011.044a8.015 8.015 0 01-.478 1.755c-.657 1.587-1.934 2.7-3.64 3.012-2.24.408-4.533-.344-5.67-2.38-.35-.623-.572-1.304-.716-2.002-.092-.444-.1-.399-.116-.858v-7.699c0-4.884.083-9.776.008-14.66h10.656V18.38l.001 4.228c0 .547-.01 1.083.007 1.618-.003.1-.003.198-.007.297l-.007.132zM51.3 29.777c-3.036.553-5.234-1.426-6.024-4.206a9.501 9.501 0 01-.228-1.013c.144-1.262.135-2.56.205-3.808.095-1.702.19-3.403.287-5.105l.757-13.476h9.409v22.357l-.013.057c-.507 2.394-1.768 4.716-4.393 5.193v.001zm-8.133-5.215a2.095 2.095 0 00-.007.131.508.508 0 00-.018.09 8.893 8.893 0 01-.444 1.69c-.605 1.592-1.793 2.84-3.482 3.24-2.198.522-4.537-.216-5.724-2.183a7.312 7.312 0 01-.841-2.14 8.983 8.983 0 01-.127-.67c-.003-.03-.013-.105-.017-.162l2.532-15.384c.385-2.335.77-4.67 1.153-7.006h8.234l-.686 12.195-.173 3.09-.032.562-.064 1.134-.182 3.257c-.03.51-.072 1.002-.084 1.491l-.034.6-.004.065zm-12.716.77c-.403 1.662-1.265 3.162-2.835 3.958-1.226.62-2.785.774-4.098.343-1.7-.556-2.556-2.203-2.918-3.847-.124-.558-.078-.803-.178-1.338l.044-.162c.304-1.05.567-2.116.85-3.173L24.387 9.65l2.005-7.483h7.914l-1.238 7.52c-.192 1.165-.383 2.33-.578 3.496-.352 2.115-.708 4.23-1.056 6.347-.072.432-.137.868-.2 1.304-.03.177-.06.355-.088.532l-.455 2.76a.911.911 0 00-.058.385c-.056.274-.116.548-.182.82v.001zm77.235-1.068l-4.26-20.397-.604-2.883c-.083-.399-.51-.687-.902-.687H25.674a.954.954 0 00-.903.687l-5.295 19.763c-.283 1.058-.607 2.113-.85 3.18-.189.82.02 1.741.213 2.544.468 1.932 1.578 3.8 3.433 4.668 2.738 1.283 6.347.473 8.291-1.83.394-.467.707-.966.962-1.488.862 1.72 2.311 3.115 4.227 3.642 2.294.632 4.937.2 6.739-1.395.702-.62 1.25-1.406 1.66-2.259.904 1.788 2.382 3.255 4.414 3.73 3.308.773 6.45-.788 7.98-3.694.812 1.64 2.18 2.976 3.978 3.545 2.274.718 5.038.376 6.912-1.146.746-.606 1.327-1.386 1.758-2.244.908 1.77 2.438 3.16 4.5 3.57 3.316.657 6.492-.719 8.014-3.646 1.256 2.452 3.674 4.11 6.751 3.752a7.843 7.843 0 005.716-3.668c.232.474.51.926.846 1.342 1.475 1.825 3.843 2.524 6.128 2.357 3.822-.279 6.557-3.37 6.575-7.18 0-.097-.015-.183-.036-.264" fill="#292C6A"/></g></svg>
